Sources/FrostedUI/Resources/Icons.xcassets/microphone24.imageset/microphone-24.svg

<svg width="24" height="24" viewBox="0 0 24 24" fill="none" xmlns="http://www.w3.org/2000/svg" data-fui-icon="true">
  <path
    d="M21.0005 9.75C21.4145 9.75021 21.7505 10.0859 21.7505 10.5C21.7505 15.5139 17.9653 19.6402 13.0969 20.1852C12.9021 20.207 12.7505 20.3692 12.7505 20.5653V21.125C12.7505 21.3321 12.9184 21.5 13.1255 21.5H15.2505C15.6645 21.5002 16.0005 21.8359 16.0005 22.25C16.0005 22.6641 15.6645 22.9998 15.2505 23H8.75049C8.33627 23 8.00049 22.6642 8.00049 22.25C8.00049 21.8358 8.33627 21.5 8.75049 21.5H10.8755C11.0826 21.5 11.2505 21.3321 11.2505 21.125V20.5653C11.2505 20.3693 11.0989 20.207 10.904 20.1852C6.03554 19.6404 2.25049 15.514 2.25049 10.5C2.25049 10.0858 2.58627 9.75 3.00049 9.75C3.41452 9.75021 3.75049 10.0859 3.75049 10.5C3.75049 15.0563 7.44414 18.75 12.0005 18.75C16.5567 18.7498 20.2505 15.0562 20.2505 10.5C20.2505 10.0858 20.5863 9.75 21.0005 9.75ZM12.0005 1.5C15.314 1.50021 18.0005 4.18642 18.0005 7.5V10.5C18.0005 13.8136 15.314 16.4998 12.0005 16.5C8.79028 16.5 6.16893 13.9789 6.0083 10.8086L6.00049 10.5V7.5C6.00049 4.18629 8.68678 1.5 12.0005 1.5ZM12.0005 3C9.51521 3 7.50049 5.01472 7.50049 7.5V10.5C7.50049 12.9853 9.51521 15 12.0005 15C14.4856 14.9998 16.5005 12.9852 16.5005 10.5V7.5C16.5005 5.01485 14.4856 3.00021 12.0005 3Z"
    fill="currentColor"
  />
</svg>

<svg xmlns="http://www.w3.org/2000/svg" width="24" height="24" fill="none" data-fui-icon="true" viewBox="0 0 24 24"><path fill="currentColor" d="M21 9.75a.75.75 0 0 1 .75.75c0 5.014-3.785 9.14-8.653 9.685a.386.386 0 0 0-.346.38v.56c0 .207.167.375.375.375h2.125a.75.75 0 0 1 0 1.5h-6.5a.75.75 0 0 1 0-1.5h2.125a.375.375 0 0 0 .375-.375v-.56a.386.386 0 0 0-.347-.38C6.036 19.64 2.25 15.514 2.25 10.5a.75.75 0 0 1 1.5 0 8.25 8.25 0 0 0 16.5 0 .75.75 0 0 1 .75-.75M12 1.5a6 6 0 0 1 6 6v3a6 6 0 0 1-11.992.309L6 10.5v-3a6 6 0 0 1 6-6M12 3a4.5 4.5 0 0 0-4.5 4.5v3a4.5 4.5 0 1 0 9 0v-3A4.5 4.5 0 0 0 12 3"/></svg>
